X:1
T:Father O'Flynn
N:from the box playing of Sally Sloane
Z:Ian Hayden, 2017
L:1/8
M:6/8
K:Dmaj
|:A|dAF DFA|dcd cBA|dcd ede|f2f ecA|
dAF DFA|dcd cBA|dcd ede|fdd d2:|
|:e|f2f fga|ecA ABc|dcd Bed|cAA A3|
BGB Bcd|AFD DFA|dcd e2e|fdd d2:|
